out/images/searchIcon.svg

<svg height="50" viewBox="0 0 24 24" width="50" xmlns="http://www.w3.org/2000/svg"><g fill="#fff"><path d="m10.77 18.3c-1.4893 0-2.94515-.4416-4.18345-1.269s-2.20344-2.0035-2.77337-3.3794-.71905-2.89-.4285-4.35064c.29055-1.46067 1.00771-2.80239 2.0608-3.85548s2.39481-1.77025 3.85548-2.0608c1.46064-.29055 2.97474-.14143 4.35064.4285s2.552 1.53507 3.3794 2.77337 1.269 2.69415 1.269 4.18345c0 .9888-.1948 1.968-.5732 2.8816s-.9331 1.7437-1.6323 2.4429-1.5293 1.2539-2.4429 1.6323-1.8928.5732-2.8816.5732zm0-13.55001c-1.18669 0-2.34673.3519-3.33343 1.01119-.98669.65928-1.75573 1.59636-2.20985 2.69271-.45413 1.09636-.57295 2.30271-.34144 3.46661s.80296 2.233 1.64207 3.0721c.83912.8391 1.90821 1.4106 3.0721 1.6421 1.16385.2315 2.37025.1127 3.46665-.3414 1.0963-.4542 2.0334-1.2232 2.6927-2.2099s1.0112-2.1467 1.0112-3.3334c0-1.59131-.6321-3.11743-1.7574-4.24265-1.1252-1.12522-2.6513-1.75736-4.2426-1.75736z"/><path d="m20 20.75c-.0985.0004-.1962-.0188-.2872-.0566-.091-.0377-.1736-.0933-.2428-.1634l-4.13-4.13c-.1325-.1422-.2046-.3303-.2012-.5246s.0822-.3796.2196-.5171c.1374-.1374.3228-.2161.5171-.2195s.3823.0687.5245.2012l4.13 4.13c.1404.1406.2193.3312.2193.53 0 .1987-.0789.3893-.2193.53-.0692.0701-.1518.1257-.2428.1634-.091.0378-.1887.057-.2872.0566z"/></g></svg>

<?xml version="1.0" encoding="utf-8"?><!-- Uploaded to: SVG Repo, www.svgrepo.com, Generator: SVG Repo Mixer Tools -->
<svg width="50px" height="50px" viewBox="0 0 24 24"  xmlns="http://www.w3.org/2000/svg">
<path fill="#fff" d="M10.77 18.3C9.2807 18.3 7.82485 17.8584 6.58655 17.031C5.34825 16.2036 4.38311 15.0275 3.81318 13.6516C3.24325 12.2757 3.09413 10.7616 3.38468 9.30096C3.67523 7.84029 4.39239 6.49857 5.44548 5.44548C6.49857 4.39239 7.84029 3.67523 9.30096 3.38468C10.7616 3.09413 12.2757 3.24325 13.6516 3.81318C15.0275 4.38311 16.2036 5.34825 17.031 6.58655C17.8584 7.82485 18.3 9.2807 18.3 10.77C18.3 11.7588 18.1052 12.738 17.7268 13.6516C17.3484 14.5652 16.7937 15.3953 16.0945 16.0945C15.3953 16.7937 14.5652 17.3484 13.6516 17.7268C12.738 18.1052 11.7588 18.3 10.77 18.3ZM10.77 4.74999C9.58331 4.74999 8.42327 5.10189 7.43657 5.76118C6.44988 6.42046 5.68084 7.35754 5.22672 8.45389C4.77259 9.55025 4.65377 10.7566 4.88528 11.9205C5.11679 13.0844 5.68824 14.1535 6.52735 14.9926C7.36647 15.8317 8.43556 16.4032 9.59945 16.6347C10.7633 16.8662 11.9697 16.7474 13.0661 16.2933C14.1624 15.8391 15.0995 15.0701 15.7588 14.0834C16.4181 13.0967 16.77 11.9367 16.77 10.75C16.77 9.15869 16.1379 7.63257 15.0126 6.50735C13.8874 5.38213 12.3613 4.74999 10.77 4.74999Z" />
<path fill="#fff" d="M20 20.75C19.9015 20.7504 19.8038 20.7312 19.7128 20.6934C19.6218 20.6557 19.5392 20.6001 19.47 20.53L15.34 16.4C15.2075 16.2578 15.1354 16.0697 15.1388 15.8754C15.1422 15.6811 15.221 15.4958 15.3584 15.3583C15.4958 15.2209 15.6812 15.1422 15.8755 15.1388C16.0698 15.1354 16.2578 15.2075 16.4 15.34L20.53 19.47C20.6704 19.6106 20.7493 19.8012 20.7493 20C20.7493 20.1987 20.6704 20.3893 20.53 20.53C20.4608 20.6001 20.3782 20.6557 20.2872 20.6934C20.1962 20.7312 20.0985 20.7504 20 20.75Z" />
</svg>
